img/logos/stripe.svg

<?xml version="1.0" encoding="UTF-8" standalone="no"?>
<svg width="116px" height="48px" viewBox="0 0 116 48" version="1.1" xmlns="http://www.w3.org/2000/svg" xmlns:xlink="http://www.w3.org/1999/xlink">
    <!-- Generator: Sketch 45 (43475) - http://www.bohemiancoding.com/sketch -->
    <title>stripe</title>
    <desc>Created with Sketch.</desc>
    <defs></defs>
    <g id="Page-1" stroke="none" stroke-width="1" fill="none" fill-rule="evenodd" opacity="0.597423041">
        <g id="Envoy-R2" transform="translate(-1029.000000, -1112.000000)" fill-rule="nonzero" fill="#222222">
            <g id="Group-22" transform="translate(298.000000, 1005.000000)">
                <g id="stripe" transform="translate(731.000000, 107.000000)">
                    <path d="M105.606558,17.6327072 C103.273406,17.6327072 103.51698,20.5238453 103.420181,23.6104309 L107.307628,23.6104309 C107.307628,20.1313591 107.307628,17.6327072 105.606558,17.6327072 Z M103.420181,28.657326 C103.420181,31.4498122 104.780617,31.9886851 107.064844,31.9886851 C109.689442,31.9886851 113.236517,31.2042431 114.597478,30.9594696 L114.597478,37.7216354 C113.528753,38.1138564 110.272599,39.0438895 107.064844,39.0438895 C101.281415,39.0438895 94.2338231,38.1130608 94.2338231,25.6680663 C94.2338231,14.6925083 99.7744671,12.0957348 105.606295,12.0957348 C111.584372,12.0957348 115.909515,15.1825856 115.909515,25.5699448 L115.909515,28.657326 L103.420181,28.657326 Z M80.6228934,18.9554917 C80.0889252,18.9554917 79.0194104,19.3965083 78.436517,19.7399337 L78.436517,32.2825193 C78.873424,32.430232 79.651229,32.5280884 79.9916009,32.5280884 C81.59561,32.5280884 82.5675374,31.1559779 82.5675374,25.423558 C82.5670113,19.5924862 82.1293152,18.9554917 80.6228934,18.9554917 L80.6228934,18.9554917 Z M81.6918821,39.0444199 C80.5255692,39.0444199 79.3105941,38.7015249 78.4359909,38.5052818 L78.4359909,47.8639558 L69.2020227,47.8639558 L69.2020227,12.5858122 L76.6859955,12.5858122 L78.04722,14.2026961 C79.4563175,12.9289724 81.4493605,12.0957348 83.5389388,12.0957348 C87.3293243,12.0957348 91.8004535,13.1734807 91.8004535,25.4227624 C91.8004535,38.8489724 85.0940227,39.0444199 81.6918821,39.0444199 L81.6918821,39.0444199 Z M60.695356,9.40110497 C58.1199456,9.40110497 56.1274286,7.29414365 56.1274286,4.74616575 C56.1274286,2.19818785 58.1199456,0.0912265193 60.695356,0.0912265193 C63.2715556,0.0912265193 65.2640726,2.19818785 65.2640726,4.74616575 C65.2640726,7.29414365 63.2715556,9.40110497 60.695356,9.40110497 Z M56.0787664,38.5546077 L56.0787664,12.5858122 L65.3127347,12.5858122 L65.3127347,38.5546077 L56.0787664,38.5546077 Z M50.487619,19.8865856 C49.0295964,19.8865856 47.9116825,20.4747845 47.4255873,20.7686188 L47.4255873,38.5546077 L38.1918821,38.5546077 L38.1918821,12.5858122 L45.5303946,12.5858122 L46.891093,15.0844641 C47.4255873,13.4675801 48.88361,12.0954696 51.0221134,12.0954696 C52.4801361,12.0954696 53.4520635,12.3895691 53.8889705,12.6343425 L53.8889705,20.3756022 C52.9657052,20.1313591 51.7509932,19.8865856 50.487619,19.8865856 Z M32.9411066,31.9889503 C33.524263,31.9889503 35.5657052,31.6953812 36.2453968,31.5967293 L36.2453968,38.2114475 C34.8365624,38.5540773 31.7258685,39.0444199 29.6849524,39.0444199 C27.0603537,39.0444199 22.1520544,38.7508508 22.1520544,31.5481989 L22.1520544,18.5147403 L18.7501769,18.5147403 L18.7501769,12.5858122 L22.1525805,12.5858122 L23.3188934,6.70620994 L31.3862857,4.74643094 L31.3862857,12.5860773 L36.2461859,12.5860773 L35.0314739,18.5150055 L31.3865488,18.5150055 L31.3865488,29.8825193 C31.3860227,31.6457901 31.920517,31.9889503 32.9411066,31.9889503 Z M9.07614512,20.0825635 C9.07614512,21.1115138 9.75688889,21.4544088 11.3603719,22.1892597 L12.3325624,22.6305414 C14.6165261,23.6594917 17.775093,25.3254365 17.775093,30.2254144 C17.775093,38.0647956 11.9916644,39.0446851 7.86090703,39.0446851 C5.1879093,39.0446851 2.36918821,38.4076906 0.473732426,37.8202873 L0.473732426,31.1071823 C2.12587755,31.5489945 4.99378685,32.233989 6.25689796,32.233989 C7.6662585,32.233989 8.7355102,32.0385414 8.7355102,30.7642873 C8.7355102,29.7843978 8.05502948,29.3436464 6.54860771,28.6578564 L5.38203175,28.1187182 C3.19539229,27.0895028 0.0846984127,25.326232 0.0846984127,20.5731713 C0.0846984127,13.6152928 5.47909297,12.0967956 9.99914739,12.0967956 C13.401288,12.0967956 15.6368526,12.880442 16.8029025,13.3217238 L16.8029025,19.8383204 C15.441941,19.3975691 12.6724082,18.8093702 11.02,18.8093702 C9.90234921,18.8088398 9.07614512,19.1024088 9.07614512,20.0825635 L9.07614512,20.0825635 Z" id="Shape"></path>
                </g>
            </g>
        </g>
    </g>
</svg>

<svg width="116" height="48" xmlns="http://www.w3.org/2000/svg"><path d="M105.61 17.633c-2.333 0-2.09 2.891-2.186 5.978h3.887c0-3.48 0-5.978-1.701-5.978zm-2.186 11.025c0 2.792 1.36 3.331 3.644 3.331 2.625 0 6.172-.784 7.533-1.029v6.762c-1.069.393-4.325 1.323-7.533 1.323-5.783 0-12.83-.931-12.83-13.376 0-10.976 5.54-13.572 11.371-13.572 5.978 0 10.303 3.087 10.303 13.474v3.087h-12.489zm-22.797-9.702c-.534 0-1.604.441-2.187.785v12.543c.437.147 1.215.245 1.555.245 1.604 0 2.576-1.372 2.576-7.104 0-5.831-.438-6.468-1.944-6.468zm1.069 20.09c-1.167 0-2.382-.344-3.256-.54v9.359h-9.234V12.587h7.484l1.36 1.617a8.313 8.313 0 0 1 5.493-2.107c3.79 0 8.261 1.077 8.261 13.327 0 13.426-6.706 13.622-10.109 13.622zM60.699 9.401c-2.576 0-4.568-2.107-4.568-4.655S58.123.092 60.699.092c2.576 0 4.568 2.107 4.568 4.655S63.275 9.402 60.7 9.402zm-4.617 29.154V12.587h9.234v25.97h-9.234zm-5.591-18.668c-1.458 0-2.576.588-3.062.882v17.786h-9.234V12.587h7.339l1.36 2.499c.535-1.617 1.993-2.99 4.131-2.99 1.458 0 2.43.295 2.867.54v7.741c-.923-.244-2.138-.489-3.401-.489zM32.944 31.99c.583 0 2.624-.293 3.304-.392v6.615c-1.409.342-4.52.833-6.56.833-2.625 0-7.533-.294-7.533-7.497V18.516h-3.402v-5.928h3.402l1.167-5.88 8.067-1.96v7.84h4.86l-1.215 5.929H31.39v11.368c0 1.763.534 2.106 1.555 2.106zM9.079 20.084c0 1.03.68 1.372 2.284 2.107l.972.441c2.284 1.03 5.443 2.695 5.443 7.595 0 7.84-5.784 8.82-9.914 8.82-2.673 0-5.492-.638-7.388-1.225v-6.713c1.652.442 4.52 1.127 5.784 1.127 1.409 0 2.478-.196 2.478-1.47 0-.98-.68-1.42-2.187-2.106l-1.166-.54C3.198 27.091.087 25.328.087 20.575c0-6.958 5.395-8.476 9.915-8.476 3.402 0 5.637.783 6.804 1.224v6.517c-1.361-.44-4.13-1.029-5.783-1.029-1.118 0-1.944.293-1.944 1.273z" fill="#222" fill-rule="nonzero" opacity=".597"/></svg>
